X:1
T:Title
%%score ( 1 2 ) { 3 | 4 }
L:1/8
M:4/4
K:G
V:1 treble nm="Bright Piano"
V:2 treble 
V:3 bass nm="Bright Piano"
V:4 bass 
V:1
 z4 z2[Q:1/4=100] [B,D]2 | [B,D]2 [B,G]2 [DB]2 [DB]2 | [Fd]4 [Fc]2 [GB]2 | [FA]2 [Fc]2 [Fe]2 dc | %4
 [GB]4 z2 [DB]2 | [^DB]2 [DF]2 [Dc]2 [DB]2 | [^DA]4 [EG]2 [Ge]2 | ed[Fc][GB] dcBA | %8
 [^DB]4 z2 e-[Ge] | [Gd]2 [Ac][GB] [GA]2 [Fd]2 |[M:3/4] G4 z2 |] %11
V:2
 x8 | x8 | x8 | z4 z2 F2 | x8 | x8 | x8 | G2 z2 F2 D2 | z4 z2 .E2 | x8 |[M:3/4] x6 |] %11
V:3
 z4 z2 G,2 | G,2 G,2 G,2 G,2 | C4 D2 D2 | C2 A,2 C2[K:bass] B,A, | G,4 z2 G,2 | F,2 F,2 F,2 F,2 | %6
 F,4 G,2 C2 | B,2 A,G, A,2 G,F, | F,4 z2[K:treble] C2 | B,2 D2 C2 C2 |[M:3/4] B,4 z2 |] %11
V:4
 z4 z2 G,,2 | G,,2 G,,2 G,,2 G,,2 | A,,4 A,,2 G,,2 | D,2 D,2 D,2 D,2 | G,,4 z4 | %5
 B,,2 B,,2 A,,2 B,,2 | C,4 C,2 C,2 | D,2 D,2 D,2 D,2 | B,,4 z2 C,2 | D,2 D,2 D,2 D,2 | %10
[M:3/4] G,4 z2 |] %11

